ukui-icon-theme-default/scalable/actions/view-list-symbolic.svg

<?xml version="1.0" encoding="iso-8859-1"?>
<!-- Generator: Adobe Illustrator 24.0.0, SVG Export Plug-In . SVG Version: 6.00 Build 0)  -->
<svg version="1.1" id="v" xmlns="http://www.w3.org/2000/svg" xmlns:xlink="http://www.w3.org/1999/xlink" x="0px" y="0px"
	 viewBox="0 0 16 16" style="enable-background:new 0 0 16 16;" xml:space="preserve">
<title>16</title>
<g id="_16">
	<line style="fill:none;stroke:#808080;stroke-linecap:round;stroke-miterlimit:10;" x1="6.5" y1="11.5" x2="14.5" y2="11.5"/>
	<line style="fill:none;stroke:#808080;stroke-linecap:round;stroke-miterlimit:10;" x1="6.5" y1="7.5" x2="14.5" y2="7.5"/>
	<line style="fill:none;stroke:#808080;stroke-linecap:round;stroke-miterlimit:10;" x1="6.5" y1="3.5" x2="14.5" y2="3.5"/>
	<path style="fill:#808080;" d="M4,11v1H3v-1H4 M4,10H3c-0.552,0-1,0.448-1,1v1c0,0.552,0.448,1,1,1h1c0.552,0,1-0.448,1-1v-1
		C5,10.448,4.552,10,4,10z"/>
	<path style="fill:#808080;" d="M4,7v1H3V7H4 M4,6H3C2.448,6,2,6.448,2,7v1c0,0.552,0.448,1,1,1h1c0.552,0,1-0.448,1-1V7
		C5,6.448,4.552,6,4,6z"/>
	<path style="fill:#808080;" d="M4,3v1H3V3H4 M4,2H3C2.448,2,2,2.448,2,3v1c0,0.552,0.448,1,1,1h1c0.552,0,1-0.448,1-1V3
		C5,2.448,4.552,2,4,2z"/>
</g>
</svg>

<svg id="v" xmlns="http://www.w3.org/2000/svg" viewBox="0 0 16 16"><defs><style>.cls-1{fill:none;stroke:gray;stroke-linecap:round;stroke-miterlimit:10;}.cls-2{fill:gray;}</style></defs><title>16</title><g id="_16" data-name="16"><line class="cls-1" x1="6.5" y1="11.5" x2="14.5" y2="11.5"/><line class="cls-1" x1="6.5" y1="7.5" x2="14.5" y2="7.5"/><line class="cls-1" x1="6.5" y1="3.5" x2="14.5" y2="3.5"/><path class="cls-2" d="M4,11v1H3V11H4m0-1H3a1,1,0,0,0-1,1v1a1,1,0,0,0,1,1H4a1,1,0,0,0,1-1V11a1,1,0,0,0-1-1Z"/><path class="cls-2" d="M4,7V8H3V7H4M4,6H3A1,1,0,0,0,2,7V8A1,1,0,0,0,3,9H4A1,1,0,0,0,5,8V7A1,1,0,0,0,4,6Z"/><path class="cls-2" d="M4,3V4H3V3H4M4,2H3A1,1,0,0,0,2,3V4A1,1,0,0,0,3,5H4A1,1,0,0,0,5,4V3A1,1,0,0,0,4,2Z"/></g></svg>
